static/cart-big.svg

<svg width="240" height="240" viewBox="0 0 240 240" fill="none" xmlns="http://www.w3.org/2000/svg">
<path d="M99.2001 124.91C92.5301 123.49 86.0501 121.2 80.0101 118.02C78.3101 117.13 76.7301 116.01 75.3401 114.69C75.1201 114.48 74.9301 114.25 74.8301 113.96C74.7001 113.58 74.7501 113.17 74.8001 112.78C75.7701 105.51 77.3701 98.32 79.5701 91.32C79.5701 91.32 70.5101 70.68 68.9001 61.83C67.2901 52.97 67.1701 43.76 69.3501 35.03C69.4401 34.68 69.5401 34.31 69.8201 34.07C70.1401 33.81 70.5901 33.8 71.0001 33.81C83.4601 34.13 96.8501 38.55 107.2 45.5C112.29 41.06 128.91 33.81 141.24 33.43C144.9 21.52 152.52 9.65003 161.99 1.55003C162.3 1.28003 162.66 1.00003 163.07 1.01003C163.43 1.01003 163.75 1.24003 164.04 1.46003C171.24 6.87003 176.94 14.1 181.27 21.99C185.6 29.88 191.56 51.62 191.56 51.62C197.68 55.67 203.45 60.25 208.78 65.29C209.07 65.56 209.37 65.85 209.5 66.23C209.55 66.36 209.57 66.5 209.58 66.64C209.67 68.14 209.25 69.63 208.7 71.03C205.95 77.92 202.12 84.33 197.46 90.09C228.27 113.81 240.78 159.21 239.77 205.34C239.54 215.79 231.04 224.16 220.59 224.16H124.42C113.93 224.16 105.24 216.03 104.55 205.56L99.2001 124.91Z" fill="#DCDFE2"/>
<path d="M201.8 93.6899C201.22 94.1199 200.66 94.5699 200.06 94.9599C197.37 96.7299 194.45 98.1999 192.1 100.41C187.38 104.84 185.63 111.75 186.12 118.21C186.61 124.66 189.08 130.79 191.74 136.69C193.21 139.95 194.8 143.27 197.37 145.76C199.44 147.76 202.03 149.12 204.35 150.83C207.01 152.79 209.32 155.22 211.14 157.98C212.51 160.06 213.6 162.33 215.01 164.39C217.82 168.52 222 171.83 226.84 173.03C230.55 173.95 234.63 173.52 237.98 171.74C233.8 140.33 222.29 111.87 201.8 93.6899Z" fill="#A3ABB8"/>
<path d="M230.75 187.4C230.31 188.44 230.18 189.58 230.13 190.71C229.94 194.83 231.04 199.43 234.49 201.7C236.05 202.73 237.91 203.13 239.8 203.22C239.9 195.74 239.64 188.3 239 180.97C238.88 181.04 238.77 181.14 238.65 181.21C235.69 182.9 232.08 184.25 230.75 187.4Z" fill="#A3ABB8"/>
<path d="M222.09 121.18L204.34 103.43L202.25 105.52L185.75 122.02C182.58 125.19 182.58 130.32 185.75 133.48C188.92 136.65 194.05 136.65 197.21 133.48L213.71 116.99L219.99 123.27L222.09 121.18Z" fill="#2D303F"/>
<path d="M17.9097 121.18L35.6597 103.43L37.7497 105.52L54.2497 122.02C57.4197 125.19 57.4197 130.32 54.2497 133.48C51.0797 136.65 45.9497 136.65 42.7897 133.48L26.2897 116.99L19.9997 123.28L17.9097 121.18Z" fill="#2D303F"/>
<path d="M147.53 63.16C150.37 65.83 153.94 67.62 157.61 68.95C166.08 72 175.37 72.73 184.2 71.03C191.69 69.59 198.83 66.39 204.93 61.81C200.7 58.13 196.23 54.72 191.55 51.62C191.55 51.62 185.59 29.89 181.26 21.99C176.93 14.1 171.22 6.87001 164.03 1.46001C163.74 1.24001 163.42 1.02001 163.06 1.01001C162.65 1.01001 162.29 1.28001 161.98 1.55001C152.51 9.65001 144.89 21.52 141.23 33.43C139.66 33.5 138.11 33.66 136.58 33.85C136.41 42.43 138.8 51.07 143.52 58.24C144.69 60.01 145.99 61.7 147.53 63.16Z" fill="#A3ABB8"/>
<path d="M75.5401 107.98C86.6101 109.23 98.1501 106.27 107.17 99.71C111.45 96.59 115.27 92.57 117.07 87.58C117.83 85.47 118.21 83.24 118.4 81C118.98 74.11 117.72 67.17 115.6 60.59C113.8 55.01 111.37 49.66 108.87 44.35C108.31 44.73 107.75 45.09 107.2 45.49C96.8501 38.55 83.4601 34.13 71.0001 33.81C70.5901 33.8 70.1401 33.81 69.8201 34.07C69.5401 34.3 69.4401 34.68 69.3501 35.03C67.1701 43.76 67.2901 52.97 68.9001 61.83C70.5101 70.69 79.5701 91.32 79.5701 91.32C77.8501 96.77 76.5101 102.35 75.5401 107.98Z" fill="#A3ABB8"/>
<path d="M175.71 238.99H64.2899C58.9499 238.99 54.2799 235.4 52.9099 230.24L34.3999 160.84H205.6L187.09 230.25C185.72 235.4 181.05 238.99 175.71 238.99Z" fill="#E44D39"/>
<path d="M212.89 160.84H27.1098C25.9798 160.84 25.0698 159.92 25.0698 158.8V141.67H214.93V158.8C214.93 159.92 214.01 160.84 212.89 160.84Z" fill="#E44D39"/>
<path d="M198.68 125.87L214.22 140.85C215.7 142.28 214.69 144.79 212.63 144.79H27.3599C25.2999 144.79 24.2899 142.28 25.7699 140.85L41.3099 125.87C42.0899 125.12 43.1299 124.7 44.2099 124.7H195.78C196.87 124.7 197.91 125.12 198.68 125.87Z" fill="#F96E64"/>
<path d="M197.43 127.86L207.95 138.91C208.9 139.91 208.25 141.66 206.93 141.66H33.0698C31.7498 141.66 31.0998 139.91 32.0498 138.91L42.5698 127.86C43.3498 127.04 44.3998 126.58 45.4798 126.58H194.51C195.6 126.58 196.65 127.04 197.43 127.86Z" fill="#BA2F25"/>
<path d="M140.38 212.57L140.03 212.22C137.7 209.89 137.7 206.1 140.03 203.77L156.54 187.26C158.87 184.93 162.66 184.93 164.99 187.26L165.34 187.61C167.67 189.94 167.67 193.73 165.34 196.06L148.83 212.57C146.49 214.91 142.71 214.91 140.38 212.57Z" fill="#BA2F25"/>
<path d="M156.36 187.43L140.2 203.59C139.25 204.54 138.68 205.72 138.48 206.95C138.69 208.18 139.25 209.36 140.2 210.31C142.63 212.74 146.57 212.74 149.01 210.31L165.17 194.15C166.12 193.2 166.69 192.02 166.89 190.79C166.68 189.56 166.12 188.38 165.17 187.43C162.73 185 158.79 185 156.36 187.43Z" fill="#7A1A17"/>
<path d="M107.69 212.57L107.34 212.22C105.01 209.89 105.01 206.1 107.34 203.77L123.85 187.26C126.18 184.93 129.97 184.93 132.3 187.26L132.65 187.61C134.98 189.94 134.98 193.73 132.65 196.06L116.14 212.57C113.81 214.91 110.03 214.91 107.69 212.57Z" fill="#BA2F25"/>
<path d="M123.68 187.43L107.52 203.59C106.57 204.54 106 205.72 105.8 206.95C106.01 208.18 106.57 209.36 107.52 210.31C109.95 212.74 113.89 212.74 116.33 210.31L132.49 194.15C133.44 193.2 134.01 192.02 134.21 190.79C134 189.56 133.44 188.38 132.49 187.43C130.05 185 126.11 185 123.68 187.43Z" fill="#7A1A17"/>
<path d="M75.0101 212.57L74.6601 212.22C72.3301 209.89 72.3301 206.1 74.6601 203.77L91.1701 187.26C93.5001 184.93 97.2901 184.93 99.6201 187.26L99.9701 187.61C102.3 189.94 102.3 193.73 99.9701 196.06L83.4601 212.57C81.1301 214.91 77.3501 214.91 75.0101 212.57Z" fill="#BA2F25"/>
<path d="M91.0001 187.43L74.8401 203.59C73.8901 204.54 73.3201 205.72 73.1201 206.95C73.3301 208.18 73.8901 209.36 74.8401 210.31C77.2701 212.74 81.2101 212.74 83.6501 210.31L99.8101 194.15C100.76 193.2 101.33 192.02 101.53 190.79C101.32 189.56 100.76 188.38 99.8101 187.43C97.3701 185 93.4301 185 91.0001 187.43Z" fill="#7A1A17"/>
<path d="M203.57 168.43H36.4299L34.3999 160.84H205.6L203.57 168.43Z" fill="#BA2F25"/>
<path d="M111.38 96.55C118.974 96.55 125.13 90.394 125.13 82.8C125.13 75.2061 118.974 69.05 111.38 69.05C103.786 69.05 97.6299 75.2061 97.6299 82.8C97.6299 90.394 103.786 96.55 111.38 96.55Z" fill="white"/>
<path d="M160.15 78.23C167.744 78.23 173.9 72.0739 173.9 64.48C173.9 56.8861 167.744 50.73 160.15 50.73C152.556 50.73 146.4 56.8861 146.4 64.48C146.4 72.0739 152.556 78.23 160.15 78.23Z" fill="white"/>
<path d="M146.56 85.7099C146.2 85.1799 145.59 84.8499 144.95 84.8399C141.49 84.8299 138.5 85.9099 136.13 88.1799C135.67 88.6199 135.45 89.2499 135.53 89.8699C135.61 90.4999 135.99 91.0499 136.55 91.3499L141.85 94.2499C142.14 94.4099 142.47 94.4899 142.8 94.4899C143.03 94.4899 143.27 94.4499 143.49 94.3699C144.03 94.1699 144.46 93.7399 144.66 93.1999L146.78 87.5199C147.01 86.9199 146.92 86.2399 146.56 85.7099Z" fill="#E44D39"/>
<path d="M159.08 98.6899L144.71 95.8199C144.31 95.7299 143.89 95.9099 143.65 96.2499L135.29 108.21C134.96 108.68 135.08 109.33 135.55 109.66C135.73 109.79 135.94 109.85 136.15 109.85C136.48 109.85 136.8 109.7 137 109.4L144.97 97.9999L158.67 100.73C159.22 100.84 159.78 100.48 159.9 99.9099C160.01 99.3499 159.64 98.7999 159.08 98.6899Z" fill="#515A69"/>
<path d="M119.92 85.61C118.93 87.38 117.06 88.59 114.89 88.59C111.7 88.59 109.11 86 109.11 82.81C109.11 82.53 109.15 82.26 109.19 81.99C104.75 82.03 100.75 83.78 98.1597 86.59C99.6297 91.75 104.07 95.78 109.73 96.47C115.39 97.16 120.66 94.3 123.33 89.64C122.5 88.12 121.33 86.76 119.92 85.61Z" fill="#73C04D"/>
<path d="M169.21 66.3401C168.15 67.7001 166.52 68.6001 164.66 68.6001C161.82 68.6001 159.46 66.5401 158.98 63.8401C154.11 64.1901 149.91 66.5201 147.51 69.9001C149.62 74.8301 154.53 78.2701 160.23 78.2401C165.93 78.2101 170.8 74.7101 172.86 69.7501C171.9 68.4301 170.65 67.2801 169.21 66.3401Z" fill="#73C04D"/>
<path d="M100.18 88.08C101.05 89.75 102.29 91.17 103.78 92.32C103.97 92.47 104.33 92.48 104.55 92.42C104.78 92.36 105.03 92.18 105.15 91.96C105.27 91.73 105.33 91.45 105.25 91.19C105.16 90.93 105.01 90.76 104.79 90.59C104.87 90.65 104.93 90.7 104.81 90.61C104.77 90.58 104.73 90.54 104.68 90.51C104.61 90.45 104.53 90.39 104.46 90.32C104.31 90.19 104.15 90.05 104.01 89.91C103.71 89.62 103.42 89.31 103.15 88.99C103.09 88.92 103.03 88.84 102.97 88.76C102.86 88.62 103.06 88.88 102.99 88.78C102.96 88.74 102.93 88.69 102.89 88.65C102.77 88.49 102.65 88.32 102.54 88.15C102.31 87.8 102.1 87.44 101.91 87.06C101.67 86.59 100.98 86.42 100.54 86.7C100.06 87.02 99.9197 87.58 100.18 88.08Z" fill="#A1EC7C"/>
<path d="M149.7 71.28C150.65 72.7 151.96 73.89 153.51 74.62C153.76 74.74 154.01 74.8 154.28 74.72C154.51 74.66 154.76 74.48 154.88 74.26C155.12 73.82 155.03 73.13 154.52 72.89C154.18 72.73 153.86 72.55 153.55 72.35C153.39 72.25 153.24 72.14 153.09 72.03C153.04 71.99 152.88 71.86 153.12 72.05C153.09 72.03 153.06 72 153.03 71.98C152.95 71.92 152.87 71.85 152.79 71.78C152.51 71.54 152.24 71.28 152 71C151.94 70.93 151.88 70.86 151.82 70.79C151.79 70.75 151.76 70.72 151.73 70.68C151.71 70.65 151.6 70.51 151.7 70.65C151.8 70.78 151.7 70.65 151.68 70.62C151.65 70.58 151.63 70.55 151.6 70.51C151.54 70.43 151.48 70.34 151.43 70.26C151.14 69.83 150.53 69.6 150.06 69.9C149.62 70.19 149.39 70.81 149.7 71.28Z" fill="#A1EC7C"/>
<path d="M139.9 79.1801C137.73 79.2001 135.61 80.1101 134.1 81.6701C133.72 82.0601 133.68 82.7601 134.1 83.1401C134.51 83.5201 135.17 83.5601 135.57 83.1401C135.73 82.9701 135.89 82.8201 136.07 82.6701C136.11 82.6301 136.15 82.6001 136.19 82.5701C136.2 82.5601 136.22 82.5401 136.24 82.5301C136.26 82.5101 136.29 82.4901 136.3 82.4901C136.34 82.4601 136.39 82.4301 136.43 82.4001C136.81 82.1401 137.21 81.9301 137.62 81.7401C137.67 81.7201 137.71 81.7001 137.76 81.6901C137.86 81.6501 137.96 81.6201 138.07 81.5801C138.29 81.5101 138.51 81.4501 138.73 81.4001C138.84 81.3801 138.94 81.3601 139.05 81.3401C139.06 81.3401 139.09 81.3301 139.13 81.3201C139.14 81.3201 139.15 81.3201 139.18 81.3201C139.42 81.3001 139.66 81.2801 139.91 81.2801C140.45 81.2701 140.98 80.8001 140.95 80.2401C140.92 79.6601 140.48 79.1701 139.9 79.1801Z" fill="#A3ABB8"/>
<path d="M92.7201 54.28C88.2601 51.23 83.3601 49.5 78.0101 49.2C77.5301 49.17 77.1001 49.52 77.0101 49.99C75.9001 55.51 78.1701 66.85 80.8201 71.04C81.2501 71.62 82.1401 71.55 82.4801 70.92C83.1901 69.58 84.3901 67.39 85.8301 65.04C86.0601 64.66 86.1201 64.2 85.9801 63.78L85.1201 61.21C84.9601 60.74 85.4401 60.3 85.9001 60.51L86.9901 61.01C87.6401 61.3 88.4001 61.11 88.8201 60.53C90.1301 58.7 91.5101 57.02 92.8201 55.84C93.2801 55.4 93.2501 54.64 92.7201 54.28Z" fill="#515A69"/>
<path d="M158.47 31.62C160.1 26.46 162.89 22.09 166.92 18.55C167.28 18.23 167.83 18.24 168.2 18.56C172.48 22.22 177.67 32.55 178.17 37.48C178.19 38.2 177.45 38.7 176.79 38.4C175.4 37.78 173.11 36.8 170.52 35.83C170.11 35.68 169.78 35.35 169.63 34.93L168.72 32.37C168.55 31.9 167.9 31.85 167.67 32.3L167.12 33.36C166.79 33.99 166.07 34.31 165.39 34.11C163.23 33.48 161.11 33.01 159.35 32.88C158.72 32.84 158.28 32.22 158.47 31.62Z" fill="#515A69"/>
<path d="M197.94 145.33L222.09 121.18L204.34 103.43L209.87 97.9001C211.09 96.6801 213.07 96.6801 214.29 97.9001L239.08 122.69C240.3 123.91 240.3 125.89 239.08 127.11L233.55 132.64L209.08 157.11C205.81 160.38 200.45 160.27 197.32 156.79C194.38 153.54 194.84 148.44 197.94 145.33Z" fill="#505772"/>
<path d="M42.0599 145.33L17.9099 121.18L35.6599 103.43L30.1299 97.9001C28.9099 96.6801 26.9299 96.6801 25.7099 97.9001L0.919883 122.7C-0.300117 123.92 -0.300117 125.9 0.919883 127.12L6.44988 132.65L30.9199 157.12C34.1899 160.39 39.5499 160.28 42.6799 156.8C45.6199 153.54 45.1599 148.44 42.0599 145.33Z" fill="#505772"/>
<path d="M177.32 77.25C176.87 76.83 176.3 76.89 175.85 77.25C174.21 78.56 172.56 79.87 170.92 81.18C170.49 81.52 170.54 82.3 170.92 82.65C171.37 83.07 171.94 83.01 172.39 82.65C174.03 81.34 175.68 80.03 177.32 78.72C177.75 78.38 177.7 77.6 177.32 77.25Z" fill="#515A69"/>
<path d="M180.81 86.87C178.59 87.06 176.4 87.44 174.25 88.02C173.72 88.16 173.35 88.77 173.52 89.3C173.69 89.84 174.24 90.18 174.8 90.03C176.82 89.48 178.81 89.12 180.81 88.95C181.35 88.9 181.88 88.5 181.85 87.91C181.83 87.39 181.39 86.82 180.81 86.87Z" fill="#515A69"/>
<path d="M116.41 103.11C116.39 102.59 115.95 102.01 115.37 102.07C113.14 102.29 110.91 102.46 108.67 102.6C108.13 102.63 107.6 103.06 107.63 103.64C107.65 104.18 108.09 104.72 108.67 104.68C110.91 104.54 113.14 104.37 115.37 104.15C115.91 104.1 116.44 103.71 116.41 103.11Z" fill="#515A69"/>
<path d="M120.23 106.66C119.73 106.39 119.1 106.53 118.8 107.03C117.78 108.73 116.68 110.38 115.5 111.98C115.17 112.42 115.41 113.16 115.87 113.41C116.41 113.7 116.95 113.51 117.3 113.04C118.48 111.45 119.58 109.79 120.6 108.09C120.88 107.62 120.72 106.92 120.23 106.66Z" fill="#515A69"/>
<path d="M102.52 124.7C101.65 122.22 100.44 120.07 98.8301 117.99C95.5601 113.77 90.0701 111.38 84.7501 111.85C79.4301 112.32 74.4501 115.65 71.9701 120.38C70.4801 123.23 69.8701 126.5 70.0601 129.71C70.1401 131.14 70.3801 132.58 70.9701 133.89C72.4101 137.09 75.8001 139.08 79.2601 139.66C83.3401 140.34 87.6901 139.23 90.9601 136.69C94.2301 134.15 96.3101 128.82 96.6601 124.7H102.52Z" fill="#A3ABB8"/>
<path d="M73.6901 137.26L75.3901 133.12L71.8701 135.4C72.3801 136.1 73.0001 136.72 73.6901 137.26Z" fill="#515A69"/>
<path d="M83.4601 139.73L81.5701 135.08L80.3901 139.79C81.4201 139.87 82.4401 139.85 83.4601 139.73Z" fill="#515A69"/>
</svg>

<svg width="240" height="240" fill="none" xmlns="http://www.w3.org/2000/svg"><path d="M99.2 124.91c-6.67-1.42-13.15-3.71-19.19-6.89-1.7-.89-3.28-2.01-4.67-3.33-.22-.21-.41-.44-.51-.73-.13-.38-.08-.79-.03-1.18.97-7.27 2.57-14.46 4.77-21.46 0 0-9.06-20.64-10.67-29.49-1.61-8.86-1.73-18.07.45-26.8.09-.35.19-.72.47-.96.32-.26.77-.27 1.18-.26 12.46.32 25.85 4.74 36.2 11.69 5.09-4.44 21.71-11.69 34.04-12.07 3.66-11.91 11.28-23.78 20.75-31.88.31-.27.67-.55 1.08-.54.36 0 .68.23.97.45 7.2 5.41 12.9 12.64 17.23 20.53 4.33 7.89 10.29 29.63 10.29 29.63 6.12 4.05 11.89 8.63 17.22 13.67.29.27.59.56.72.94.05.13.07.27.08.41.09 1.5-.33 2.99-.88 4.39-2.75 6.89-6.58 13.3-11.24 19.06 30.81 23.72 43.32 69.12 42.31 115.25-.23 10.45-8.73 18.82-19.18 18.82h-96.17c-10.49 0-19.18-8.13-19.87-18.6l-5.35-80.65z" fill="#DCDFE2"/><path d="M201.8 93.69c-.58.43-1.14.88-1.74 1.27-2.69 1.77-5.61 3.24-7.96 5.45-4.72 4.43-6.47 11.34-5.98 17.8.49 6.45 2.96 12.58 5.62 18.48 1.47 3.26 3.06 6.58 5.63 9.07 2.07 2 4.66 3.36 6.98 5.07 2.66 1.96 4.97 4.39 6.79 7.15 1.37 2.08 2.46 4.35 3.87 6.41 2.81 4.13 6.99 7.44 11.83 8.64 3.71.92 7.79.49 11.14-1.29-4.18-31.41-15.69-59.87-36.18-78.05zM230.75 187.4c-.44 1.04-.57 2.18-.62 3.31-.19 4.12.91 8.72 4.36 10.99 1.56 1.03 3.42 1.43 5.31 1.52.1-7.48-.16-14.92-.8-22.25-.12.07-.23.17-.35.24-2.96 1.69-6.57 3.04-7.9 6.19z" fill="#A3ABB8"/><path d="M222.09 121.18l-17.75-17.75-2.09 2.09-16.5 16.5c-3.17 3.17-3.17 8.3 0 11.46 3.17 3.17 8.3 3.17 11.46 0l16.5-16.49 6.28 6.28 2.1-2.09zM17.91 121.18l17.75-17.75 2.09 2.09 16.5 16.5c3.17 3.17 3.17 8.3 0 11.46-3.17 3.17-8.3 3.17-11.46 0l-16.5-16.49-6.29 6.29-2.09-2.1z" fill="#2D303F"/><path d="M147.53 63.16c2.84 2.67 6.41 4.46 10.08 5.79 8.47 3.05 17.76 3.78 26.59 2.08 7.49-1.44 14.63-4.64 20.73-9.22-4.23-3.68-8.7-7.09-13.38-10.19 0 0-5.96-21.73-10.29-29.63-4.33-7.89-10.04-15.12-17.23-20.53-.29-.22-.61-.44-.97-.45-.41 0-.77.27-1.08.54-9.47 8.1-17.09 19.97-20.75 31.88-1.57.07-3.12.23-4.65.42-.17 8.58 2.22 17.22 6.94 24.39 1.17 1.77 2.47 3.46 4.01 4.92zM75.54 107.98c11.07 1.25 22.61-1.71 31.63-8.27 4.28-3.12 8.1-7.14 9.9-12.13.76-2.11 1.14-4.34 1.33-6.58.58-6.89-.68-13.83-2.8-20.41-1.8-5.58-4.23-10.93-6.73-16.24-.56.38-1.12.74-1.67 1.14C96.85 38.55 83.46 34.13 71 33.81c-.41-.01-.86 0-1.18.26-.28.23-.38.61-.47.96-2.18 8.73-2.06 17.94-.45 26.8s10.67 29.49 10.67 29.49c-1.72 5.45-3.06 11.03-4.03 16.66z" fill="#A3ABB8"/><path d="M175.71 238.99H64.29c-5.34 0-10.01-3.59-11.38-8.75l-18.51-69.4h171.2l-18.51 69.41a11.774 11.774 0 01-11.38 8.74zM212.89 160.84H27.11c-1.13 0-2.04-.92-2.04-2.04v-17.13h189.86v17.13c0 1.12-.92 2.04-2.04 2.04z" fill="#E44D39"/><path d="M198.68 125.87l15.54 14.98c1.48 1.43.47 3.94-1.59 3.94H27.36c-2.06 0-3.07-2.51-1.59-3.94l15.54-14.98c.78-.75 1.82-1.17 2.9-1.17h151.57c1.09 0 2.13.42 2.9 1.17z" fill="#F96E64"/><path d="M197.43 127.86l10.52 11.05c.95 1 .3 2.75-1.02 2.75H33.07c-1.32 0-1.97-1.75-1.02-2.75l10.52-11.05c.78-.82 1.83-1.28 2.91-1.28h149.03c1.09 0 2.14.46 2.92 1.28zM140.38 212.57l-.35-.35a5.981 5.981 0 010-8.45l16.51-16.51a5.981 5.981 0 018.45 0l.35.35a5.981 5.981 0 010 8.45l-16.51 16.51a5.963 5.963 0 01-8.45 0z" fill="#BA2F25"/><path d="M156.36 187.43l-16.16 16.16a6.12 6.12 0 00-1.72 3.36c.21 1.23.77 2.41 1.72 3.36 2.43 2.43 6.37 2.43 8.81 0l16.16-16.16a6.12 6.12 0 001.72-3.36 6.186 6.186 0 00-1.72-3.36c-2.44-2.43-6.38-2.43-8.81 0z" fill="#7A1A17"/><path d="M107.69 212.57l-.35-.35a5.981 5.981 0 010-8.45l16.51-16.51a5.981 5.981 0 018.45 0l.35.35a5.981 5.981 0 010 8.45l-16.51 16.51a5.963 5.963 0 01-8.45 0z" fill="#BA2F25"/><path d="M123.68 187.43l-16.16 16.16a6.12 6.12 0 00-1.72 3.36c.21 1.23.77 2.41 1.72 3.36 2.43 2.43 6.37 2.43 8.81 0l16.16-16.16a6.12 6.12 0 001.72-3.36 6.186 6.186 0 00-1.72-3.36c-2.44-2.43-6.38-2.43-8.81 0z" fill="#7A1A17"/><path d="M75.01 212.57l-.35-.35a5.981 5.981 0 010-8.45l16.51-16.51a5.981 5.981 0 018.45 0l.35.35a5.981 5.981 0 010 8.45l-16.51 16.51a5.963 5.963 0 01-8.45 0z" fill="#BA2F25"/><path d="M91 187.43l-16.16 16.16a6.12 6.12 0 00-1.72 3.36c.21 1.23.77 2.41 1.72 3.36 2.43 2.43 6.37 2.43 8.81 0l16.16-16.16a6.12 6.12 0 001.72-3.36 6.186 6.186 0 00-1.72-3.36c-2.44-2.43-6.38-2.43-8.81 0z" fill="#7A1A17"/><path d="M203.57 168.43H36.43l-2.03-7.59h171.2l-2.03 7.59z" fill="#BA2F25"/><path d="M111.38 96.55c7.594 0 13.75-6.156 13.75-13.75s-6.156-13.75-13.75-13.75-13.75 6.156-13.75 13.75 6.156 13.75 13.75 13.75zM160.15 78.23c7.594 0 13.75-6.156 13.75-13.75s-6.156-13.75-13.75-13.75-13.75 6.156-13.75 13.75 6.156 13.75 13.75 13.75z" fill="#fff"/><path d="M146.56 85.71a2 2 0 00-1.61-.87c-3.46-.01-6.45 1.07-8.82 3.34a1.99 1.99 0 00-.6 1.69c.08.63.46 1.18 1.02 1.48l5.3 2.9c.29.16.62.24.95.24.23 0 .47-.04.69-.12.54-.2.97-.63 1.17-1.17l2.12-5.68c.23-.6.14-1.28-.22-1.81z" fill="#E44D39"/><path d="M159.08 98.69l-14.37-2.87c-.4-.09-.82.09-1.06.43l-8.36 11.96c-.33.47-.21 1.12.26 1.45.18.13.39.19.6.19.33 0 .65-.15.85-.45l7.97-11.4 13.7 2.73c.55.11 1.11-.25 1.23-.82.11-.56-.26-1.11-.82-1.22z" fill="#515A69"/><path d="M119.92 85.61c-.99 1.77-2.86 2.98-5.03 2.98-3.19 0-5.78-2.59-5.78-5.78 0-.28.04-.55.08-.82-4.44.04-8.44 1.79-11.03 4.6 1.47 5.16 5.91 9.19 11.57 9.88 5.66.69 10.93-2.17 13.6-6.83-.83-1.52-2-2.88-3.41-4.03zM169.21 66.34c-1.06 1.36-2.69 2.26-4.55 2.26-2.84 0-5.2-2.06-5.68-4.76-4.87.35-9.07 2.68-11.47 6.06 2.11 4.93 7.02 8.37 12.72 8.34 5.7-.03 10.57-3.53 12.63-8.49-.96-1.32-2.21-2.47-3.65-3.41z" fill="#73C04D"/><path d="M100.18 88.08c.87 1.67 2.11 3.09 3.6 4.24.19.15.55.16.77.1.23-.06.48-.24.6-.46.12-.23.18-.51.1-.77-.09-.26-.24-.43-.46-.6.08.06.14.11.02.02-.04-.03-.08-.07-.13-.1-.07-.06-.15-.12-.22-.19-.15-.13-.31-.27-.45-.41-.3-.29-.59-.6-.86-.92-.06-.07-.12-.15-.18-.23-.11-.14.09.12.02.02-.03-.04-.06-.09-.1-.13a10.652 10.652 0 01-.98-1.59c-.24-.47-.93-.64-1.37-.36-.48.32-.62.88-.36 1.38zM149.7 71.28c.95 1.42 2.26 2.61 3.81 3.34.25.12.5.18.77.1.23-.06.48-.24.6-.46.24-.44.15-1.13-.36-1.37-.34-.16-.66-.34-.97-.54-.16-.1-.31-.21-.46-.32a.828.828 0 01.03.02c-.03-.02-.06-.05-.09-.07-.08-.06-.16-.13-.24-.2-.28-.24-.55-.5-.79-.78l-.18-.21c-.03-.04-.06-.07-.09-.11-.02-.03-.13-.17-.03-.03.1.13 0 0-.02-.03l-.08-.11c-.06-.08-.12-.17-.17-.25-.29-.43-.9-.66-1.37-.36-.44.29-.67.91-.36 1.38z" fill="#A1EC7C"/><path d="M139.9 79.18a8.24 8.24 0 00-5.8 2.49c-.38.39-.42 1.09 0 1.47.41.38 1.07.42 1.47 0 .16-.17.32-.32.5-.47.04-.04.08-.07.12-.1.01-.01.03-.03.05-.04.02-.02.05-.04.06-.04.04-.03.09-.06.13-.09.38-.26.78-.47 1.19-.66.05-.02.09-.04.14-.05.1-.04.2-.07.31-.11.22-.07.44-.13.66-.18l.32-.06c.01 0 .04-.01.08-.02h.05c.24-.02.48-.04.73-.04.54-.01 1.07-.48 1.04-1.04-.03-.58-.47-1.07-1.05-1.06z" fill="#A3ABB8"/><path d="M92.72 54.28c-4.46-3.05-9.36-4.78-14.71-5.08a.973.973 0 00-1 .79c-1.11 5.52 1.16 16.86 3.81 21.05.43.58 1.32.51 1.66-.12.71-1.34 1.91-3.53 3.35-5.88.23-.38.29-.84.15-1.26l-.86-2.57a.57.57 0 01.78-.7l1.09.5c.65.29 1.41.1 1.83-.48 1.31-1.83 2.69-3.51 4-4.69.46-.44.43-1.2-.1-1.56zM158.47 31.62c1.63-5.16 4.42-9.53 8.45-13.07.36-.32.91-.31 1.28.01 4.28 3.66 9.47 13.99 9.97 18.92a.978.978 0 01-1.38.92c-1.39-.62-3.68-1.6-6.27-2.57-.41-.15-.74-.48-.89-.9l-.91-2.56a.573.573 0 00-1.05-.07l-.55 1.06c-.33.63-1.05.95-1.73.75-2.16-.63-4.28-1.1-6.04-1.23-.63-.04-1.07-.66-.88-1.26z" fill="#515A69"/><path d="M197.94 145.33l24.15-24.15-17.75-17.75 5.53-5.53a3.126 3.126 0 014.42 0l24.79 24.79a3.126 3.126 0 010 4.42l-5.53 5.53-24.47 24.47a8.1 8.1 0 01-11.76-.32c-2.94-3.25-2.48-8.35.62-11.46zM42.06 145.33l-24.15-24.15 17.75-17.75-5.53-5.53a3.126 3.126 0 00-4.42 0L.92 122.7a3.126 3.126 0 000 4.42l5.53 5.53 24.47 24.47a8.1 8.1 0 0011.76-.32c2.94-3.26 2.48-8.36-.62-11.47z" fill="#505772"/><path d="M177.32 77.25c-.45-.42-1.02-.36-1.47 0-1.64 1.31-3.29 2.62-4.93 3.93-.43.34-.38 1.12 0 1.47.45.42 1.02.36 1.47 0 1.64-1.31 3.29-2.62 4.93-3.93.43-.34.38-1.12 0-1.47zM180.81 86.87c-2.22.19-4.41.57-6.56 1.15-.53.14-.9.75-.73 1.28.17.54.72.88 1.28.73 2.02-.55 4.01-.91 6.01-1.08.54-.05 1.07-.45 1.04-1.04-.02-.52-.46-1.09-1.04-1.04zM116.41 103.11c-.02-.52-.46-1.1-1.04-1.04-2.23.22-4.46.39-6.7.53-.54.03-1.07.46-1.04 1.04.02.54.46 1.08 1.04 1.04 2.24-.14 4.47-.31 6.7-.53.54-.05 1.07-.44 1.04-1.04zM120.23 106.66c-.5-.27-1.13-.13-1.43.37-1.02 1.7-2.12 3.35-3.3 4.95-.33.44-.09 1.18.37 1.43.54.29 1.08.1 1.43-.37 1.18-1.59 2.28-3.25 3.3-4.95.28-.47.12-1.17-.37-1.43z" fill="#515A69"/><path d="M102.52 124.7c-.87-2.48-2.08-4.63-3.69-6.71-3.27-4.22-8.76-6.61-14.08-6.14-5.32.47-10.3 3.8-12.78 8.53-1.49 2.85-2.1 6.12-1.91 9.33.08 1.43.32 2.87.91 4.18 1.44 3.2 4.83 5.19 8.29 5.77 4.08.68 8.43-.43 11.7-2.97 3.27-2.54 5.35-7.87 5.7-11.99h5.86z" fill="#A3ABB8"/><path d="M73.69 137.26l1.7-4.14-3.52 2.28c.51.7 1.13 1.32 1.82 1.86zM83.46 139.73l-1.89-4.65-1.18 4.71c1.03.08 2.05.06 3.07-.06z" fill="#515A69"/></svg>
